usr/share/icons/biglinux-icons-material/24/actions/keyframe-disable.svg

<svg xmlns="http://www.w3.org/2000/svg" version="1.1" viewBox="0 0 24 24" width="24" height="24">
  <defs>
    <style id="current-color-scheme" type="text/css">.ColorScheme-Text {
        color:#dedede;
      }</style>
  </defs>
  <g transform="translate(1,1)">
    <path style="fill:currentColor;fill-opacity:1;stroke:none" d="m7 3v1h3v2.0253906c-3.345314 0.2580024-6 3.065482-6 6.4746094 0 0.985128 0.2273322 1.917485 0.6230469 2.755859l0.7578125-0.757812c-0.2423462-0.620165-0.3808594-1.292049-0.3808594-1.998047 0-3.0375661 2.4624339-5.5 5.5-5.5 0.705998 0 1.377882 0.1385132 1.998047 0.3808594l0.744141-0.7441406c-0.692573-0.3269796-1.443196-0.5497071-2.242188-0.6113282v-2.0253906h3v-1h-7zm11.292969 0-15.292969 15.292969 0.7070312 0.707031 15.292969-15.292969-0.707031-0.7070312zm-0.876953 3.7050781-0.707032 0.7070313 0.591797 0.5878906 0.705078-0.7089844-0.589843-0.5859375zm-1.816407 1.8164063-0.695312 0.6953125c0.684983 0.9171481 1.095703 2.0504541 1.095703 3.2832031 0 3.037566-2.462434 5.5-5.5 5.5-1.2327492 0-2.3660547-0.41072-3.2832031-1.095703l-0.7089844 0.708984c1.104037 0.864737 2.4877477 1.386719 3.9921875 1.386719 3.578006 0 6.5-2.921994 6.5-6.5 0-1.50382-0.535284-2.8764137-1.400391-3.9785156z" class="ColorScheme-Text"/>
  </g>
</svg>

<svg xmlns="http://www.w3.org/2000/svg" width="24" height="24"><path d="M7 3v1h3v2.025c-3.345.258-6 3.066-6 6.475 0 .985.227 1.917.623 2.756l.758-.758A5.473 5.473 0 0 1 5 12.5 5.5 5.5 0 0 1 10.5 7c.706 0 1.378.139 1.998.38l.744-.743A6.392 6.392 0 0 0 11 6.025V4h3V3H7zm11.293 0L3 18.293l.707.707L19 3.707 18.293 3zm-.877 3.705-.707.707.592.588.705-.709-.59-.586zM15.6 8.521l-.696.696A5.466 5.466 0 0 1 16 12.5a5.5 5.5 0 0 1-5.5 5.5 5.466 5.466 0 0 1-3.283-1.096l-.71.71A6.455 6.455 0 0 0 10.5 19c3.578 0 6.5-2.922 6.5-6.5 0-1.504-.535-2.876-1.4-3.979z" style="fill:currentColor;fill-opacity:1;stroke:none;color:#dedede" transform="translate(1 1)"/></svg>
